Flat Remix Dark/devices/scalable/media-optical.svg

<svg xmlns="http://www.w3.org/2000/svg" width="512" height="512" version="1" viewBox="0 0 512 512">
 <g transform="translate(0,384)">
  <path style="fill:#f4f4f4;stroke:#000000;stroke-width:10" d="m 256,-351.60248 c -123.48956,0 -223.602484,100.11298 -223.602484,223.60249 0,123.489615 100.112924,223.602475 223.602484,223.602475 123.48956,0 223.60248,-100.11286 223.60248,-223.602475 0,-123.48951 -100.11292,-223.60249 -223.60248,-223.60249 z m 0,162.62005 c 33.68266,0 60.98248,27.29974 60.98248,60.98244 0,33.682685 -27.29982,60.982545 -60.98248,60.982545 -33.68266,0 -60.98249,-27.29986 -60.98249,-60.982545 0,-33.6827 27.29983,-60.98244 60.98249,-60.98244 z"/>
  <path style="fill:#ffffff;stroke:#000000;stroke-width:10" d="m 256,-223.46641 c -52.72566,0 -95.46644,42.74072 -95.46644,95.46641 0,52.725695 42.74078,95.466415 95.46644,95.466415 52.72566,0 95.46643,-42.74072 95.46643,-95.466415 0,-52.7257 -42.74077,-95.46641 -95.46643,-95.46641 z m 0,44.80368 c 27.97669,0 50.66276,22.68604 50.66276,50.66273 0,27.97669 -22.68607,50.662735 -50.66276,50.662735 -27.9767,0 -50.66277,-22.686035 -50.66277,-50.662735 0,-27.97669 22.68607,-50.66273 50.66277,-50.66273 z"/>
 </g>
</svg>

<svg xmlns="http://www.w3.org/2000/svg" width="384pt" height="384pt" version="1.1" viewBox="0 0 384 384">
 <g>
  <path style="fill:rgb(95.686275%,95.686275%,95.686275%);stroke-width:10;stroke:rgb(0%,0%,0%)" d="M 256 -351.604167 C 132.510417 -351.604167 32.395833 -251.489583 32.395833 -128 C 32.395833 -4.510417 132.510417 95.604167 256 95.604167 C 379.489583 95.604167 479.604167 -4.510417 479.604167 -128 C 479.604167 -251.489583 379.489583 -351.604167 256 -351.604167 Z M 256 -188.984375 C 289.682292 -188.984375 316.984375 -161.682292 316.984375 -128 C 316.984375 -94.317708 289.682292 -67.015625 256 -67.015625 C 222.317708 -67.015625 195.015625 -94.317708 195.015625 -128 C 195.015625 -161.682292 222.317708 -188.984375 256 -188.984375 Z M 256 -188.984375" transform="matrix(0.75,0,0,0.75,0,288)"/>
  <path style="fill:rgb(100%,100%,100%);stroke-width:10;stroke:rgb(0%,0%,0%)" d="M 256 -223.46875 C 203.276042 -223.46875 160.53125 -180.723958 160.53125 -128 C 160.53125 -75.276042 203.276042 -32.53125 256 -32.53125 C 308.723958 -32.53125 351.46875 -75.276042 351.46875 -128 C 351.46875 -180.723958 308.723958 -223.46875 256 -223.46875 Z M 256 -178.661458 C 283.979167 -178.661458 306.661458 -155.979167 306.661458 -128 C 306.661458 -100.020833 283.979167 -77.338542 256 -77.338542 C 228.020833 -77.338542 205.338542 -100.020833 205.338542 -128 C 205.338542 -155.979167 228.020833 -178.661458 256 -178.661458 Z M 256 -178.661458" transform="matrix(0.75,0,0,0.75,0,288)"/>
 </g>
</svg>
